X: 287
T:Mrs Rose's Reel -- Banff
B:William Marshall's Scottish Airs, Melodies, Strathspeys, Reels &c (1822)
C:William Marshall
L:1/8
M:C|
O:Scotland
R:Reel
Z:Clark Bernst + Richard Robinson
%%Page:39 - 3
F:http://richardrobinson.tunebook.org.uk/tune/4130
%%TBL:{"version":1,"type":"tune","id":"4130"}
K:G
%%staves {1 2}
V:1
G2- G!wedge!B dBgB | dBgB A/A/A (AB) | G2- G!wedge!B dgba | g<fg>B G/G/G G2 :| 
{f}g2 (gb) afge | d<Bg>B A/A/A A2 | g2 (gb) afge | d<Bg>B G/G/G G2 | \
{f}g2 (gb) afge | d<Bg>B A/A/A A2 | gbab gaeg | d<Bg>B G/G/G G2 |]
V:2 middle=d clef=bass
L:1/4
GGGG | GGdd | GGGB | cdGG :| \
ggdg | ggdd | ggdg | d'dgg | \
ggdg | ggdd | gdgc | ddGG |]

